packages/gamut-icons/src/overview.svg

<?xml version="1.0" encoding="utf-8"?>
<!-- Generated by IcoMoon.io -->
<!DOCTYPE svg PUBLIC "-//W3C//DTD SVG 1.1//EN" "http://www.w3.org/Graphics/SVG/1.1/DTD/svg11.dtd">
<svg version="1.1" xmlns="http://www.w3.org/2000/svg" xmlns:xlink="http://www.w3.org/1999/xlink" width="16" height="16" viewBox="0 0 16 16">
<path fill="#444" d="M14.7 4v10.7h-10.7v-10.7h10.7zM16 2.7h-13.3v13.3h13.3v-13.3zM0 0v13.3h1.3v-12h12v-1.3h-13.3z"></path>
</svg>

<svg xmlns="http://www.w3.org/2000/svg" viewBox="0 0 16 16">
    <path fill="#444" d="M14.7 4v10.7H4V4h10.7zM16 2.7H2.7V16H16V2.7zM0 0v13.3h1.3v-12h12V0H0z"/>
</svg>
